X: 67
T: No_2_Song_of_Osawapunoke.krn
N: Derived from No_2_Song_of_Osawapunoke.krn
%%abc-version 2.0
%%abcx-abcm2ps-target-version 5.9.1 (29 Sep 2008)
%%abc-creator hum2abc beta
%%abcx-conversion-date 2019/03/15 08:35:44
%%humdrum-veritas 1054581619
%%humdrum-veritas-data 3525232921
%%linebreak <none>
%%barnumbers 0
L: 1/8
M: 2/4
K: G clef=bass
[K:clef=bass][M:2/4]z2B,B, | 
C3/C/C2 ||  
[M:3/4]B,4B,B, ||  
[M:2/4]A,3/G,/E,2 ||  
[M:3/4]E,2E, z/ B,/B,2 ||  
[M:2/4]B,3/A,/G,2 ||  
[M:3/4]A,4A,2 ||  
[M:2/4]G,3/E,/E,2 ||  
[M:3/4]E,2E, z/ G,/G,2 ||  
[M:2/4]G,3/G,/E,2 ||  
[M:3/4]E,2E, z E,C, ||  
[M:2/4]B,,2B,,A,, ||  
[M:3/4]B,,4B,,G,, | 
E,,4z2 |]  



